X: 1
T: MacArthur Road #1  [D]
C: Dave Richardson
M: C|
L: 1/8
Z: John Chambers <jc:trillian.mit.edu> from handwritten MS (by Barbara McOwen?)
K: D
dB \
| "D"AF~F2 ABde | f3d "(D7)"edBd | "G"e2fd edBd | "Em"gdfd "A7"edBd |
| "D"AF~F2 ABde | f3d "(D7)"edBd | "G"e2fd "Em"e[fB]dB | "A7"ABde "D"d2 :|
|: fg \
| "D"ad~d2 adbd | ad~d2 "D7"edBd | "G"e2fd edBd | "Em"gdfd "A7"edBd |
| "D"ad~d2 adbd | ad~d2 "D7"edBd | "G"e2fd "Em"e[fB]dB | "A7"ABde "D"d2 :|
